images/icons/chart.svg

<svg width="90" height="76" viewBox="0 0 90 76" fill="none" xmlns="http://www.w3.org/2000/svg">
<path d="M74.7953 0.0368652C67.9186 0.0368652 62.4851 5.57892 62.4851 12.4852C62.4851 19.3914 68.0035 24.8482 74.7953 24.8482C81.5872 24.8482 87.1904 19.3062 87.1904 12.3999C87.1904 5.49365 81.6721 0.0368652 74.7953 0.0368652ZM74.7953 22.1198C69.4467 22.1198 65.1169 17.7714 65.1169 12.3999C65.1169 7.02838 69.5316 2.76526 74.7953 2.76526C80.1439 2.76526 84.4737 7.11364 84.4737 12.4852C84.4737 17.8567 80.1439 22.1198 74.7953 22.1198Z" fill="#03BCFC"/>
<path d="M78.7005 14.3609C78.6156 14.1052 78.6156 13.9346 78.4458 13.6788C78.3609 13.5083 78.276 13.2525 78.1062 13.082C77.9364 12.9115 77.8515 12.741 77.6817 12.5704C77.5119 12.3999 77.3421 12.2294 77.0874 12.1441C76.9176 11.9736 76.6629 11.8883 76.4931 11.8031C76.2384 11.7178 76.0686 11.5473 75.8139 11.462C75.5592 11.3768 75.3045 11.2915 75.1347 11.2062C75.0498 11.2062 74.88 11.121 74.7951 11.0357C74.7102 10.9504 74.5405 10.9504 74.4556 10.8652C74.3707 10.7799 74.2009 10.7799 74.116 10.6947C74.0311 10.6094 73.9462 10.5241 73.8613 10.4389C73.7764 10.3536 73.6915 10.2683 73.6915 10.0978C73.6066 10.0126 73.6066 9.84204 73.6066 9.75678C73.6066 9.58625 73.6066 9.50099 73.6066 9.33046C73.6066 9.2452 73.6915 9.07468 73.6915 8.98941C73.7764 8.90415 73.7764 8.73363 73.8613 8.64837C73.9462 8.5631 74.0311 8.47784 74.116 8.39258C74.2009 8.30732 74.3707 8.22205 74.5405 8.22205C74.7103 8.13679 74.7952 8.13679 74.9649 8.13679C75.0498 8.13679 75.1347 8.13679 75.2196 8.13679C75.3045 8.13679 75.3894 8.13679 75.4743 8.13679C75.6441 8.13679 75.729 8.13679 75.8988 8.22205C76.0686 8.22205 76.2384 8.30732 76.3233 8.30732C76.4082 8.30732 76.578 8.39258 76.6629 8.39258C76.8327 8.39258 76.9176 8.47784 77.0025 8.47784L77.427 8.64837L77.5119 8.13679L77.6817 6.7726V6.43155L77.3421 6.34629C77.2572 6.34629 77.0874 6.26102 77.0025 6.26102C76.9176 6.26102 76.8327 6.17576 76.6629 6.17576C76.578 6.17576 76.4082 6.0905 76.2384 6.0905C76.0686 6.0905 75.9837 6.00524 75.8139 6.00524H75.729V4.81157V4.38525H75.3045H74.116H73.6915V4.81157V6.0905H73.6066C73.3519 6.17576 73.0972 6.26102 72.8425 6.43155C72.5878 6.51681 72.418 6.68733 72.2482 6.85786C72.0784 7.02838 71.9086 7.19891 71.7388 7.45469C71.569 7.62522 71.4841 7.88101 71.3992 8.13679C71.3143 8.39258 71.2294 8.64837 71.1445 8.90415C71.0596 9.15994 71.0596 9.50099 71.0596 9.75678C71.0596 10.0126 71.0596 10.1831 71.1445 10.4389C71.2294 10.6947 71.2294 10.8652 71.3992 11.121C71.4841 11.2915 71.6539 11.5473 71.7388 11.7178C71.9086 11.8883 71.9935 12.0589 72.1633 12.2294C72.3331 12.3999 72.5029 12.5704 72.7576 12.6557C72.9274 12.8262 73.1821 12.9115 73.3519 12.9967C73.6066 13.082 73.8613 13.2525 74.0311 13.3378C74.2858 13.4231 74.5405 13.5083 74.7103 13.5936C74.7951 13.5936 74.9649 13.6788 75.0498 13.7641C75.1347 13.8494 75.3045 13.8494 75.3894 13.9346C75.4743 14.0199 75.5592 14.1051 75.6441 14.1051C75.729 14.1904 75.8139 14.2757 75.8988 14.3609C75.9837 14.4462 75.9837 14.5315 76.0686 14.702C76.0686 14.7872 76.1535 14.9578 76.1535 15.1283C76.1535 15.2988 76.1535 15.3841 76.1535 15.5546C76.1535 15.6399 76.0686 15.8104 75.9837 15.8957C75.8988 15.9809 75.8139 16.0662 75.729 16.1514C75.6441 16.2367 75.5592 16.322 75.3894 16.4072C75.3045 16.4925 75.1347 16.4925 75.0498 16.5778C74.9649 16.5778 74.7952 16.663 74.6254 16.663C74.5405 16.663 74.4556 16.663 74.2858 16.663C74.2009 16.663 74.0311 16.663 73.9462 16.663C73.7764 16.663 73.6066 16.663 73.5217 16.663C73.3519 16.663 73.1821 16.5778 73.0972 16.5778C72.9274 16.5778 72.7576 16.4925 72.5878 16.4072C72.418 16.322 72.2482 16.322 72.0784 16.2367C71.9935 16.2367 71.9086 16.1514 71.8237 16.1514C71.7388 16.1514 71.6539 16.0662 71.569 16.0662L71.0596 15.8104L70.9747 16.4072L70.8049 17.9419V18.1977L71.0596 18.283C71.3992 18.1977 71.569 18.283 71.8237 18.3683C71.9935 18.4535 72.2482 18.5388 72.418 18.5388C72.5878 18.624 72.8425 18.624 73.0972 18.7093C73.3519 18.7946 73.5217 18.7946 73.7764 18.7946H73.9462V20.0735V20.4998H74.3707H75.5592H75.9837V20.0735V18.7093H76.0686C76.3233 18.624 76.578 18.5388 76.8327 18.3683C77.0874 18.283 77.2572 18.1125 77.5119 17.9419C77.6817 17.7714 77.8515 17.6009 78.0213 17.3451C78.1911 17.1746 78.276 16.9188 78.4458 16.663C78.5307 16.4072 78.6156 16.1514 78.7005 15.8957C78.7854 15.6399 78.7854 15.3841 78.7854 15.043C78.7854 14.7872 78.7854 14.6167 78.7005 14.3609Z" fill="#03BCFC"/>
<path d="M68.8525 26.4683C68.428 25.8714 67.4941 25.7862 66.8998 26.2125L53.1463 37.2114L35.4026 29.7935C34.9782 29.623 34.4688 29.7083 34.1292 29.964L15.112 43.6061C14.5177 44.0324 14.3479 44.885 14.7724 45.4818C15.0271 45.9081 15.4516 46.0787 15.8761 46.0787C16.1308 46.0787 16.3855 45.9934 16.6402 45.8229L35.063 32.6072L52.8916 40.025C53.3161 40.1956 53.9104 40.1103 54.25 39.8545L68.5978 28.4293C69.1921 28.003 69.277 27.0651 68.8525 26.4683Z" fill="#03BCFC"/>
<path d="M88.7184 73.1918H82.436V33.7154C82.436 32.948 81.8417 32.3512 81.0776 32.3512H68.5976C67.8335 32.3512 67.2392 32.948 67.2392 33.7154V73.1918H62.6548V47.3574C62.6548 46.59 62.0605 45.9932 61.2964 45.9932H48.7315C47.9674 45.9932 47.3731 46.59 47.3731 47.3574V73.1918H42.7886V45.3111C42.7886 44.5437 42.1943 43.9469 41.4302 43.9469H28.9502C28.1861 43.9469 27.5919 44.5437 27.5919 45.3111V73.1918H23.0074V53.3257C23.0074 52.5584 22.4131 51.9615 21.649 51.9615H9.08409C8.32001 51.9615 7.72572 52.5584 7.72572 53.3257V73.1918H1.35837C0.594286 73.1918 0 73.7887 0 74.556C0 75.3234 0.594286 75.9202 1.35837 75.9202H8.99919H21.4792H28.9502H41.4302H48.7315H61.2115H68.5127H80.9927H88.6335C89.3976 75.9202 89.9919 75.3234 89.9919 74.556C90.0768 73.7887 89.4825 73.1918 88.7184 73.1918ZM20.2057 73.1918H10.4425V54.6899H20.2057V73.1918ZM40.0719 73.1918H30.3086V46.6753H40.0719V73.1918ZM59.8531 73.1918H50.0898V48.7216H59.8531V73.1918ZM79.7193 73.1918H69.956V35.0796H79.7193V73.1918Z" fill="#03BCFC"/>
</svg>

<svg width="90" height="76" fill="none" xmlns="http://www.w3.org/2000/svg"><path d="M74.795.037c-6.876 0-12.31 5.542-12.31 12.448 0 6.906 5.519 12.363 12.31 12.363 6.792 0 12.395-5.542 12.395-12.448C87.19 5.494 81.672.037 74.795.037zm0 22.083c-5.348 0-9.678-4.349-9.678-9.72 0-5.372 4.415-9.635 9.678-9.635 5.349 0 9.679 4.349 9.679 9.72 0 5.372-4.33 9.635-9.679 9.635z" fill="#03BCFC"/><path d="M78.7 14.36c-.084-.255-.084-.425-.254-.681-.085-.17-.17-.427-.34-.597-.17-.17-.254-.341-.424-.512-.17-.17-.34-.34-.595-.426-.17-.17-.424-.256-.594-.34-.255-.086-.424-.257-.68-.342a5.816 5.816 0 01-.678-.256c-.085 0-.255-.085-.34-.17-.085-.086-.255-.086-.34-.17-.084-.086-.254-.086-.339-.171l-.255-.256c-.085-.085-.17-.17-.17-.341-.084-.085-.084-.256-.084-.341V9.33c0-.085.085-.255.085-.34.084-.086.084-.256.17-.342l.254-.255a.647.647 0 01.424-.171c.17-.085.255-.085.425-.085h.509c.17 0 .255 0 .425.085.17 0 .34.085.424.085.085 0 .255.086.34.086.17 0 .255.085.34.085l.424.17.085-.511.17-1.364v-.341l-.34-.086c-.085 0-.255-.085-.34-.085-.084 0-.17-.085-.34-.085-.084 0-.254-.086-.424-.086-.17 0-.254-.085-.424-.085h-.085v-1.62h-2.037V6.09h-.085c-.255.086-.51.171-.764.342-.255.085-.425.255-.595.426-.17.17-.34.34-.51.597-.169.17-.254.426-.339.682l-.255.767c-.084.256-.084.597-.084.853s0 .426.084.682c.085.256.085.426.255.682.085.17.255.426.34.597.17.17.254.34.424.511.17.17.34.341.595.427.17.17.424.255.594.34.255.086.51.256.68.342.254.085.508.17.678.256.085 0 .255.085.34.17.085.085.255.085.34.17.084.086.17.171.254.171l.255.256c.085.085.085.17.17.341 0 .085.084.256.084.426v.427c0 .085-.084.255-.17.34l-.254.256c-.085.086-.17.171-.34.256-.084.085-.254.085-.34.17-.084 0-.254.086-.424.086h-1.103c-.17 0-.34-.085-.425-.085-.17 0-.34-.085-.51-.17-.169-.086-.339-.086-.509-.171-.085 0-.17-.086-.254-.086-.085 0-.17-.085-.255-.085l-.51-.256-.084.597-.17 1.535v.256l.255.085c.34-.085.509 0 .764.085.17.085.424.17.594.17.17.086.424.086.68.171.254.086.424.086.678.086h.17V20.5h2.038v-1.791h.085c.254-.085.509-.17.764-.34.254-.086.424-.256.679-.427.17-.17.34-.341.51-.597.17-.17.254-.426.424-.682l.255-.767c.084-.256.084-.512.084-.853 0-.256 0-.426-.084-.682zm-9.847 12.108c-.425-.597-1.359-.682-1.953-.256l-13.754 11-17.743-7.419a1.35 1.35 0 00-1.274.171L15.112 43.606c-.594.426-.764 1.279-.34 1.876.255.426.68.597 1.104.597.255 0 .51-.086.764-.256l18.423-13.216 17.829 7.418c.424.17 1.018.085 1.358-.17l14.348-11.426c.594-.426.679-1.364.255-1.96z" fill="#03BCFC"/><path d="M88.718 73.192h-6.282V33.715c0-.767-.594-1.364-1.358-1.364h-12.48c-.764 0-1.359.597-1.359 1.364v39.477h-4.584V47.357c0-.767-.595-1.364-1.359-1.364H48.731c-.764 0-1.358.597-1.358 1.364v25.835H42.79v-27.88c0-.768-.595-1.365-1.359-1.365H28.95c-.764 0-1.358.597-1.358 1.364v27.88h-4.585V53.327c0-.768-.594-1.364-1.358-1.364H9.084c-.764 0-1.358.596-1.358 1.364v19.866H1.358C.594 73.193 0 73.79 0 74.557c0 .767.594 1.364 1.358 1.364h87.275c.765 0 1.359-.597 1.359-1.364.085-.767-.51-1.364-1.274-1.364zm-68.512 0h-9.763V54.69h9.763v18.502zm19.866 0h-9.763V46.675h9.763v26.517zm19.781 0H50.09v-24.47h9.763v24.47zm19.866 0h-9.763V35.08h9.763v38.112z" fill="#03BCFC"/></svg>
